!!!COM:	la Rue, Pierre de
!!!CDT:	~1452///-1518/11/20
!!!OPR:	Missa Assumpta est Maria
!!!ONM:	5
!!!OTL:	Agnus Dei
!!!AGN:	Mass; Agnus Dei
!!!SCT:	Rue1003e
!!!SCA:	Rue1003e
!!!voices:	4
**kern	**kern	**kern	**kern
*staff4	*staff3	*staff2	*staff1
*Ivox	*Ivox	*Ivox	*Ivox
*I"Bassus	*I"Tenor	*I"Contra	*I"Discantus
*I'B	*I'T	*I'C	*I'D
*>[A,B,B]	*>[A,B,B]	*>[A,B,B]	*>[A,B,B]
*>A	*>A	*>A	*>A
*clefF4	*clefF4	*clefGv2	*clefGv2
*k[b-]	*k[b-]	*k[b-]	*k[b-]
*M3/1	*M3/1	*M3/1	*M3/1
*met(O)	*met(O)	*met(O)	*met(O)
!!section: Agnus Dei I
!!!OMD: Agnus Dei I
=1-	=1-	=1-	=1-
0C	0C	0G	0c
[1FF	1C	1A	1c
=2	=2	=2	=2
1FF]	0C	0c	0A
0C	.	.	.
.	1E	1A	1c
=3	=3	=3	=3
0BB-	0.F	2.B-\	1d
.	.	4c\	.
.	.	4d\	1.f
.	.	4c\	.
.	.	4B-\	.
.	.	4A/	.
1D	.	1B-	.
.	.	.	2e\
=4	=4	=4	=4
0C	0.G	2c\	2.e\
.	.	2G/	.
.	.	.	4f\
.	.	2c\	2g\
.	.	1c	2e\
1r	.	.	1d
.	.	2B-\	.
=5	=5	=5	=5
2r	0.A	2.c\	1c
2.F\	.	.	.
.	.	4F/	.
.	.	0F	2r
4E\	.	.	.
4D\	.	.	2.f\
4C/	.	.	.
2D\	.	.	.
.	.	.	4e\
2AA/	.	.	4d\
.	.	.	4c\
=6	=6	=6	=6
2r	0F	1r	2d\
2.D\	.	.	2A/
.	.	1r	2r
4C/	.	.	.
4BB-/	.	.	2.d\
4AA/	.	.	.
1BB-	1F	1D	.
.	.	.	4c\
.	.	.	4B-\
.	.	.	4A/
=7	=7	=7	=7
2GG/	1G	2D/	2B-\
1C	.	1E	2G/
.	2E\	.	1c
2AA/	1A	2C/	.
4D\	.	4F/	2A/
4E\	.	4G/	.
2F\	2F\	2A/	[2d\
=8	=8	=8	=8
0BB-	2.B-\	0D	4d\]
.	.	.	4e\
.	.	.	2f\
.	4A\	.	.
.	2G\	.	2.B-\
.	1F	.	.
.	.	.	4c\
[1FF	.	1F	2d\
.	[2A\	.	[2c\
=9	=9	=9	=9
1FF]	4A\]	2F/	2c\]
.	4B-\	.	.
.	2c\	2.A/	2.a\
1r	2F\	.	.
.	.	4B-\	4g\
.	2A\	1c	1f
1C	1G	.	.
.	.	2c\	2e\
=10	=10	=10	=10
1D	0.F	2A/	0f
.	.	1d	.
2BB-/	.	.	.
2.F\	.	1c	.
.	.	.	1r
4E\	.	.	.
2D\	.	2B-\	.
=11	=11	=11	=11
2.C/	0.r	2c\	0.r
.	.	2G/	.
4BB-/	.	.	.
2AA/	.	2.c\	.
2GG/	.	.	.
.	.	4B-\	.
1C	.	2A/	.
.	.	2G/	.
=12	=12	=12	=12
0.FF	2.F\	1c	0.r
.	4E\	.	.
.	2D\	1F	.
.	2C/	.	.
.	1F	2r	.
.	.	[2c\	.
=13	=13	=13	=13
1AA	1C	2c\]	0.r
.	.	2A/	.
2GG/	1r	2B-\	.
2.BB-/	.	2.G/	.
.	1r	.	.
4AA/	.	4A/	.
2GG/	.	2B-\	.
=14	=14	=14	=14
2FF/	1F	2c\	1r
2AA/	.	2A/	.
2GG/	1G	2B-\	1r
2BB-/	.	2.G/	.
1AA	1A	.	1c
.	.	4F/	.
.	.	2F/	.
=15	=15	=15	=15
[0.GG	[0.B-	2r	0d
.	.	2G/	.
.	.	2D/	.
.	.	2.G/	.
.	.	.	1d
.	.	4F/	.
.	.	2E/	.
=16	=16	=16	=16
0.GG]	0.B-]	1.D	0g
.	.	2E/	.
.	.	[1D	1g
=17	=17	=17	=17
0DD	0A	1D]	0f
.	.	0F	.
1FF	1A	.	1c
=18	=18	=18	=18
1.GG	1.B-	0D	2r
.	.	.	1g
2DD/	2A\	.	2f\
2GG/	2G\	2r	2e\
2BB-/	2F\	[2d\	2d\
=19	=19	=19	=19
1FF	2.A\	2d\]	2.f\
.	.	2c\	.
.	4G\	.	4e\
2C/	2E\	2A/	2c\
1BB-	1F	1B-	1d
2C/	2E\	2A/	[2c\
=20	=20	=20	=20
1GG	1D	1G	4c\]
.	.	.	4B-\
.	.	.	2B-\
0AA	0C	2E/	1.c
.	.	2.F/	.
.	.	4E/	.
.	.	2E/	2A/
=21	=21	=21	=21
[0.FF	1r	0F	0A
.	0C	.	.
.	.	1F	[1c
=22	=22	=22	=22
1FF]	0.C	2r	1c]
.	.	2c\	.
1r	.	2c\	0G
.	.	1c	.
1r	.	.	.
.	.	4B-\	.
.	.	4A/	.
=23	=23	=23	=23
2r	[0.E	1.G	1r
2C/	.	.	.
2C/	.	.	1r
1C	.	2C/	.
.	.	[1G	2r
4BB-/	.	.	2g\
4AA/	.	.	.
=24	=24	=24	=24
1GG	0.E]	1G]	2g\
.	.	.	2.g\
0C	.	1G	.
.	.	.	4f\
.	.	.	4e\
.	.	.	4d\
.	.	1A	2.c\
.	.	.	4B-\
=25	=25	=25	=25
0BB-	1F	2.B-\	2.d\
.	.	4c\	4e\
.	2.D\	2d\	2f\
.	.	2.B-\	2.d\
.	4E\	.	.
1BB-	2F\	.	.
.	.	4c\	4e\
.	2D\	2d\	2f\
=26	=26	=26	=26
2C/	0G	2c\	2e\
2BB-/	.	2d\	1d
1GG	.	2B-\	.
.	.	2.d\	2.g\
1D	1A	.	.
.	.	4c\	4f\
.	.	2A/	2f\
=27	=27	=27	=27
2GG/	1.G	2B-\	1g
1C	.	1G	.
.	.	.	1c
2E\	2E\	1c	.
1D	1F	.	2r
.	.	2B-\	[2f\
=28	=28	=28	=28
2r	2r	1c	2f\]
2.C/	2.G\	.	2.e\
.	.	1r	.
4AA/	4F\	.	4c\
2BB-/	2D\	.	2d\
2C/	2E\	1r	2.c\
2AA/	2C/	.	.
.	.	.	4A/
=29	=29	=29	=29
2GG/	0D	1r	2B-\
2r	.	.	2.G/
1GG	.	2.G/	.
.	.	.	4A/
.	.	.	4B-\
.	.	4A/	4c\
2.GG/	1D	4B-\	2d\
.	.	4c\	.
.	.	2d\	2G/
4AA/	.	.	.
=30	=30	=30	=30
4BB-/	2r	2G/	2r
4C/	.	.	.
2D\	1D	2F/	1d
2GG/	.	2D/	.
2BB-/	2D\	1G	2B-\
1AA	2E\	.	2.c\
.	2F\	2C/	.
.	.	.	4A/
=31	=31	=31	=31
0GG	2G\	0D	4B-\
.	.	.	4c\
.	4F\	.	4d\
.	4E\	.	4e\
.	4F\	.	2d\
.	4E\	.	.
.	4D\	.	1c
.	4C/	.	.
1GG	1D	1G	.
.	.	.	2Bni\
=32	=32	=32	=32
0.CCl	0.Cl	0.Gl	0.cl
!!LO:LB:i:g=z
=33||	=33||	=33||	=33||
*>B	*>B	*>B	*>B
*clefF4	*clefF4	*clefGv2	*clefGv2
*k[b-]	*k[b-]	*k[b-]	*k[b-]
*M2/1	*M2/1	*M2/1	*M2/1
*met(C|)	*met(C|)	*met(C|)	*met(C|)
!!section: Agnus Dei II and III
!!!OMD: Agnus Dei II and III
0C	0r	1c	0r
.	.	2.c\	.
.	.	4B-\	.
=34	=34	=34	=34
1C	0r	2G/	0r
.	.	2A/	.
1C	.	2G/	.
.	.	[2c\	.
=35	=35	=35	=35
1E	0r	4c\]	0r
.	.	4B-\	.
.	.	4A/	.
.	.	4G/	.
1F	.	1A	.
=36	=36	=36	=36
2G\	0r	0G	1g
1E	.	.	.
.	.	.	2.g\
4D\	.	.	.
4C/	.	.	4f\
=37	=37	=37	=37
2BB-/	0r	1G	2d\
2C/	.	.	2e\
1GG	.	1G	2d\
.	.	.	[2g\
=38	=38	=38	=38
0r	0r	1B-	4g\]
.	.	.	4f\
.	.	.	4e\
.	.	.	4d\
.	.	1c	2e\
.	.	.	4d\
.	.	.	4c\
=39	=39	=39	=39
0GG	0r	0d	2B-\
.	.	.	1c
.	.	.	2Bni\
=40	=40	=40	=40
2AA/	0C	1c	0c
2.FF/	.	.	.
.	.	2.c\	.
4GG/	.	.	.
4AA/	.	.	.
4BB-/	.	4B-\	.
=41	=41	=41	=41
2C/	1C	2G/	0r
2FF/	.	2A/	.
[1C	1C	2G/	.
.	.	[2c\	.
=42	=42	=42	=42
2C/]	1E	4c\]	0r
.	.	4B-\	.
2E\	.	4A/	.
.	.	4G/	.
1D	1F	1A	.
=43	=43	=43	=43
0GG	1G	[0G	0r
.	2.G\	.	.
.	4F\	.	.
=44	=44	=44	=44
1GG	2D\	0G]	0r
.	2E\	.	.
1GG	2D\	.	.
.	[2G\	.	.
=45	=45	=45	=45
1BB-	4G\]	0r	1r
.	4F\	.	.
.	4E\	.	.
.	4D\	.	.
1C	1E	.	1g
=46	=46	=46	=46
1D	1D	0r	2f\
.	.	.	1d
2.BB-/	[1F	.	.
.	.	.	4c\
4C/	.	.	4B-\
=47	=47	=47	=47
2D\	2F\]	0r	2A/
2GG/	2G\	.	2B-\
1D	2A\	.	2A/
.	[2B-\	.	[2d\
=48	=48	=48	=48
0GG	4B-\]	0D	2d\]
.	4A\	.	.
.	2A\	.	2c\
.	1G	.	1B-
=49	=49	=49	=49
1D	0F	1D	1A
2.D\	.	[1A	1d
4C/	.	.	.
=50	=50	=50	=50
2AA/	0r	2A/]	2.c\
2BB-/	.	4G/	.
.	.	4F/	4d\
2AA/	.	2c\	2e\
[2D\	.	2F/	[2f\
=51	=51	=51	=51
4D\]	0G	0B-	4f\]
4C/	.	.	4e\
4BB-/	.	.	4d\
4AA/	.	.	4c\
2BB-/	.	.	2d\
4AA/	.	.	2B-\
4GG/	.	.	.
=52	=52	=52	=52
1FF	[0A	1c	2f\
.	.	.	4e\
.	.	.	4d\
1r	.	2r	1c
.	.	[2F/	.
=53	=53	=53	=53
1FF	0A]	2F/]	1r
.	.	2F/	.
[1AA	.	[1E	1c
=54	=54	=54	=54
1AA]	0A	1E]	1c
[1FF	.	1F	[1c
=55	=55	=55	=55
1FF]	[0F	[0A	1c]
1AA	.	.	1c
=56	=56	=56	=56
0D	0F]	1A]	1d
.	.	1B-	1d
=57	=57	=57	=57
0C	[0G	0c	2.e\
.	.	.	4c\
.	.	.	4e\
.	.	.	4f\
.	.	.	[2g\
=58	=58	=58	=58
0C	0G]	1r	4g\]
.	.	.	4f\
.	.	.	4e\
.	.	.	4d\
.	.	[1c	4e\
.	.	.	4d\
.	.	.	4c\
.	.	.	4B-\
=59	=59	=59	=59
0FF	0F	1c]	1A
.	.	2.A/	1f
.	.	4B-\	.
=60	=60	=60	=60
0r	0r	4c\	2.e\
.	.	4B-\	.
.	.	1G	.
.	.	.	4f\
.	.	.	4g\
.	.	.	4f\
.	.	[2B-\	[2d\
=61	=61	=61	=61
1r	0r	2B-\]	2d\]
.	.	4A/	1f
.	.	4G/	.
1BB-	.	1F	.
.	.	.	4e\
.	.	.	4d\
=62	=62	=62	=62
2.AA/	0r	2F/	1c
.	.	1E	.
4BB-/	.	.	.
4C/	.	.	2c\
4BB-/	.	.	.
[2GG/	.	[2G/	[2B-\
=63	=63	=63	=63
2GG/]	0r	2G/]	2B-\]
1BB-	.	4F/	4A/
.	.	4E/	4G/
.	.	2D/	2F/
4AA/	.	[2A/	[2c\
4GG/	.	.	.
=64	=64	=64	=64
1FF	0r	4A/]	2c\]
.	.	4G/	.
.	.	1F	4B-\
.	.	.	4A/
1C	.	.	2G/
.	.	2E/	[2c\
=65	=65	=65	=65
0FF	0F	1F	2c\]
.	.	.	2A/
.	.	[1c	1A
=66	=66	=66	=66
1r	0E	2c\]	1r
.	.	1A	.
1AA	.	.	[1c
.	.	4G/	.
.	.	4F/	.
=67	=67	=67	=67
0AA	0C	1E	1c]
.	.	1F	1c
=68	=68	=68	=68
0GG	0D	1G	1B-
.	.	1B-	[1d
=69	=69	=69	=69
1FF	[0F	[0A	2d\]
.	.	.	4c\
.	.	.	4B-\
[1D	.	.	2A/
.	.	.	2F/
=70	=70	=70	=70
2D\]	0F_	0A_	1.f
4C/	.	.	.
4BB-/	.	.	.
2AA/	.	.	.
2FF/	.	.	4e\
.	.	.	4d\
=71	=71	=71	=71
1.F	0F]	0A]	1c
.	.	.	1d
4E\	.	.	.
4D\	.	.	.
=72	=72	=72	=72
1C	0G	1c	1e
2r	.	2r	2r
[2C/	.	[2c\	[2e\
=73	=73	=73	=73
2C/]	1G	2c\]	2e\]
2GG/	.	2B-\	2d\
2C/	1G	1c	2e\
2E\	.	.	2c\
=74	=74	=74	=74
1.D	1.F	1.d	1.f
2GG/	2G\	2B-\	2d\
=75	=75	=75	=75
1GG	0G	1B-	1d
2r	.	2r	2r
[2GG/	.	[2B-\	[2d\
=76	=76	=76	=76
2GG/]	2r	2B-\]	2d\]
1C	1G	1c	1e
[2F\	[2A\	[2A/	[2c\
=77	=77	=77	=77
2F\]	2A\]	2A/]	2c\]
2BB-/	1F	1d	1f
[1BB-	.	.	.
.	[2B-\	2B-\	2d\
=78	=78	=78	=78
1BB-]	2B-\]	2B-\	1d
.	2G\	4c\	.
.	.	4d\	.
2C/	2.G\	2e-i\	2r
2BB-/	.	[2d\	2d\
.	4F\	.	.
=79	=79	=79	=79
1C	2E\	2d\]	2.e\
.	2C/	2.c\	.
.	.	.	4f\
1GG	1D	.	1g
.	.	4Bni\	.
.	.	2Bni\	.
=80	=80	=80	=80
1r	0C	1c	2.e\
.	.	.	4f\
1C	.	1e	2g\
.	.	.	2e\
=81	=81	=81	=81
1.BB-	1D	2d\	2f\
.	.	1B-	1d
.	[1F	.	.
2FF/	.	2A/	2c\
=82	=82	=82	=82
2BB-/	2F\]	2B-\	2d\
2C/	2E\	2G/	2c\
2FF/	2D\	2A/	[1c
2AA/	2C/	2F/	.
=83	=83	=83	=83
0GG	0D	[0G	2c\]
.	.	.	4Bni\
.	.	.	4A/
.	.	.	1Bni
=84	=84	=84	=84
0C	0E	0G]	1c
.	.	.	1e
=85	=85	=85	=85
2.BB-/	0F	1B-	2.d\
4AA/	.	.	4e\
1FF	.	1A	4f\
.	.	.	4e\
.	.	.	4d\
.	.	.	4c\
=86	=86	=86	=86
0GG;	0D;	0G;	0Bni;
=87	=87	=87	=87
*^	*	*	*
0CCl\	0Cl/	0Cl	0Gl	0cl
*v	*v	*	*	*
!!LO:TX:Y=40:rj:t=[Agnus Dei III ut supra]
==	==	==	==
*-	*-	*-	*-
!!!RDF**kern: l=long note in original notation
!!!RDF**kern: i=editorial accidental
!!!ENC:	Chris Gage 11-26-2012
!!!END:	2013/05/19/
!!!EED:	Jesse Rodin
!!!EEV:	2013/07/16/
!!!ONB:	Translated from MusicXML and edited on 2013/07/16/ by Craig Sapp
!!muse2ps: T^@{OPR}^u^@{ONM}{. }@{OTL}^C^@{COM}^i2I150v85,85,85,150Q16
